images/rpm_indicator.svg

<svg
  width="200"
  height="200"
  viewBox="0 0 452 452"
  fill="none"
  xmlns="http://www.w3.org/2000/svg"
>
  <g id="rpm_indicator 1" clip-path="url(#clip0)">
    <g id="rpm indicator">
      <g id="saat">
        <g id="saat elemanlari">
          <g id="cizgiler">
            <path
              id="Vector 9"
              d="M382.97 322.35C391.1 326.994 399.23 331.636 407.36 336.28C412.968 339.483 418.005 330.842 412.407 327.645C404.277 323.001 396.147 318.359 388.017 313.715C382.407 310.515 377.367 319.155 382.967 322.355L382.97 322.35Z"
              fill="black"
            />
            <path
              id="Vector 10"
              d="M39.4436 122.334C47.5736 126.978 55.7035 131.62 63.8335 136.264C69.4415 139.467 74.4786 130.826 68.8806 127.629C60.7506 122.985 52.6206 118.343 44.4906 113.699C38.8806 110.499 33.8406 119.139 39.4406 122.339L39.4436 122.334Z"
              fill="black"
            />
            <path
              id="Vector 10 2"
              d="M313.5 387.05C318.237 395.48 322.974 403.909 327.711 412.338C330.87 417.959 339.509 412.919 336.346 407.291C331.609 398.861 326.872 390.433 322.135 382.003C318.985 376.383 310.345 381.423 313.505 387.053L313.5 387.05Z"
              fill="black"
            />
            <path
              id="Vector 8"
              d="M409.73 230.66H438.328C444.776 230.66 444.776 220.66 438.328 220.66H409.73C403.28 220.66 403.28 230.66 409.73 230.66Z"
              fill="black"
            />
            <path
              id="Vector 7"
              d="M387.66 138.43C395.91 133.513 404.16 128.597 412.41 123.681C417.942 120.384 412.917 111.737 407.363 115.046C399.113 119.963 390.863 124.879 382.613 129.795C377.083 133.095 382.103 141.745 387.663 138.435L387.66 138.43Z"
              fill="black"
            />
            <path
              id="Vector 6"
              d="M322.85 69.035C327.348 60.699 331.846 52.363 336.344 44.027C339.406 38.353 330.772 33.304 327.709 38.98C323.211 47.316 318.713 55.652 314.215 63.988C311.165 69.663 319.795 74.711 322.855 69.035H322.85Z"
              fill="black"
            />
            <path
              id="Vector 5"
              d="M230.73 41.224V13.061C230.73 6.61199 220.73 6.61199 220.73 13.061V41.224C220.73 47.672 230.73 47.672 230.73 41.224Z"
              fill="black"
            />
            <path
              id="Vector 4"
              d="M41.225 220.66H13.13C6.68099 220.66 6.68099 230.66 13.13 230.66H41.225C47.673 230.66 47.673 220.66 41.225 220.66Z"
              fill="black"
            />
            <path
              id="Vector 3"
              d="M63.799 312.89L39.049 327.638C33.516 330.935 38.543 339.582 44.096 336.273L68.846 321.525C74.379 318.225 69.353 309.575 63.799 312.885V312.89Z"
              fill="black"
            />
            <path
              id="Vector 2"
              d="M130.22 382.82C125.184 390.976 120.147 399.133 115.111 407.29C111.713 412.793 120.365 417.811 123.746 412.337C128.782 404.181 133.819 396.024 138.855 387.867C142.255 382.357 133.605 377.347 130.225 382.817L130.22 382.82Z"
              fill="black"
            />
            <path
              id="Vector"
              d="M220.73 409.73V438.26C220.73 444.708 230.73 444.708 230.73 438.26V409.73C230.73 403.28 220.73 403.28 220.73 409.73Z"
              fill="black"
            />
          </g>
          <path
            id="d&#195;&#132;&#194;&#177;s yuvarlak"
            d="M5 225.66C5.141 179.942 19.247 135.419 45.554 98.02C71.194 61.572 108.214 33.567 149.994 18.232C193.463 2.27599 241.658 0.81699 286.174 13.291C329.077 25.312 367.465 50.861 395.934 85.013C455.451 156.399 462.346 260.823 414.546 340.123C391.654 378.102 357.111 408.358 316.866 426.802C274.681 446.135 226.422 451.078 181.046 441.877C91.625 423.747 21.806 349.387 7.576 259.607C5.8 248.387 5.041 237.007 5.006 225.657C4.996 222.433 -0.00400357 222.432 0.00599643 225.657C0.143996 270.414 13.366 314.282 38.261 351.497C62.391 387.571 97.09 416.136 136.928 433.253C178.401 451.072 224.806 455.641 269.078 447.226C312.133 439.043 352.147 417.619 383.518 387.145C448.485 324.044 468.786 224.995 435.108 141.125C401.848 58.274 320.368 2.46499 231.368 -0.00501052C141.748 -2.49601 57.538 50.676 20.278 131.995C6.833 161.325 0.107996 193.425 0.00799643 225.655C-0.00200357 228.875 4.998 228.875 5.008 225.655L5 225.66Z"
            fill="black"
          />
        </g>
        <g id="imlecRpm" class="imlec">
          <path
            id="yuvarlak"
            d="M226.88 212.9H226.179C219.365 212.9 213.679 218.586 213.679 225.4C213.679 232.214 219.365 237.9 226.179 237.9H226.88C233.694 237.9 239.38 232.214 239.38 225.4C239.38 218.586 233.69 212.9 226.88 212.9Z"
            fill="black"
          />
          <path
            id="imlec"
            d="M228.378 217.222C228.114 167.885 227.85 118.548 227.586 69.2122C227.565 65.2656 227.543 61.3189 227.522 57.3714C227.506 54.1492 222.504 54.1926 222.523 57.4225C222.786 106.759 223.05 156.096 223.314 205.432C223.336 209.379 223.357 213.325 223.378 217.273C223.41 220.504 228.407 220.466 228.388 217.231L228.378 217.222Z"
            fill="black"
          />
        </g>
      </g>
      <path
        id="101"
        d="M60.4072 106H58.7725V95.1631L55.4941 96.3672V94.8906L60.1523 93.1416H60.4072V106ZM73.1953 100.542C73.1953 102.446 72.8701 103.861 72.2197 104.787C71.5693 105.713 70.5527 106.176 69.1699 106.176C67.8047 106.176 66.7939 105.725 66.1377 104.822C65.4814 103.914 65.1416 102.561 65.1182 100.762V98.5908C65.1182 96.71 65.4434 95.3125 66.0938 94.3984C66.7441 93.4844 67.7637 93.0273 69.1523 93.0273C70.5293 93.0273 71.543 93.4697 72.1934 94.3545C72.8438 95.2334 73.1777 96.5928 73.1953 98.4326V100.542ZM71.5693 98.3184C71.5693 96.9414 71.376 95.9395 70.9893 95.3125C70.6025 94.6797 69.9902 94.3633 69.1523 94.3633C68.3203 94.3633 67.7139 94.6768 67.333 95.3037C66.9521 95.9307 66.7559 96.8945 66.7441 98.1953V100.797C66.7441 102.18 66.9434 103.202 67.3418 103.864C67.7461 104.521 68.3555 104.849 69.1699 104.849C69.9727 104.849 70.5674 104.538 70.9541 103.917C71.3467 103.296 71.5518 102.317 71.5693 100.981V98.3184ZM80.6221 106H78.9873V95.1631L75.709 96.3672V94.8906L80.3672 93.1416H80.6221V106Z"
        fill="black"
      />
      <path
        id="RPM"
        d="M211.238 261.098H207.23V268H204.969V250.938H210.617C212.539 250.938 214.016 251.375 215.047 252.25C216.086 253.125 216.605 254.398 216.605 256.07C216.605 257.133 216.316 258.059 215.738 258.848C215.168 259.637 214.371 260.227 213.348 260.617L217.355 267.859V268H214.941L211.238 261.098ZM207.23 259.258H210.688C211.805 259.258 212.691 258.969 213.348 258.391C214.012 257.812 214.344 257.039 214.344 256.07C214.344 255.016 214.027 254.207 213.395 253.645C212.77 253.082 211.863 252.797 210.676 252.789H207.23V259.258ZM222.02 261.32V268H219.77V250.938H226.062C227.93 250.938 229.391 251.414 230.445 252.367C231.508 253.32 232.039 254.582 232.039 256.152C232.039 257.809 231.52 259.086 230.48 259.984C229.449 260.875 227.969 261.32 226.039 261.32H222.02ZM222.02 259.48H226.062C227.266 259.48 228.188 259.199 228.828 258.637C229.469 258.066 229.789 257.246 229.789 256.176C229.789 255.16 229.469 254.348 228.828 253.738C228.188 253.129 227.309 252.812 226.191 252.789H222.02V259.48ZM237.816 250.938L243.395 264.859L248.973 250.938H251.891V268H249.641V261.355L249.852 254.184L244.25 268H242.527L236.938 254.219L237.16 261.355V268H234.91V250.938H237.816Z"
        fill="#9C9B9B"
      />
      <path
        id="72"
        d="M203.648 24.0899L198.348 35.9727H196.643L201.926 24.5118H195V23.1758H203.648V24.0899ZM213.879 35.9727H205.494V34.8038L209.924 29.8819C210.58 29.1377 211.031 28.5342 211.277 28.0713C211.529 27.6026 211.655 27.1192 211.655 26.6211C211.655 25.9532 211.453 25.4053 211.049 24.9776C210.644 24.5498 210.105 24.336 209.431 24.336C208.623 24.336 207.993 24.5674 207.542 25.0303C207.096 25.4873 206.874 26.126 206.874 26.9463H205.248C205.248 25.7686 205.626 24.8165 206.382 24.0899C207.143 23.3633 208.16 23 209.431 23C210.621 23 211.561 23.3135 212.253 23.9405C212.944 24.5616 213.29 25.3907 213.29 26.4278C213.29 27.6875 212.487 29.1875 210.882 30.9278L207.454 34.6456H213.879V35.9727Z"
        fill="black"
      />
    </g>
  </g>
  <defs>
    <clipPath id="clip0">
      <rect width="452" height="452" fill="white" />
    </clipPath>
  </defs>
</svg>

<svg xmlns="http://www.w3.org/2000/svg" xmlns:xlink="http://www.w3.org/1999/xlink" width="452" height="452" fill="none" xmlns:v="https://vecta.io/nano"><g clip-path="url(#A)"><g fill="#000"><use xlink:href="#B"/><path d="M39.444 122.334l24.4 13.93c5.608 3.203 10.645-5.438 5.047-8.635l-24.4-13.93c-5.6-3.2-10.65 5.44-5.05 8.64l.003-.005zM313.5 387.05l14.2 25.288c3.16 5.62 11.798.58 8.635-5.047l-14.2-25.288c-3.15-5.62-11.8-.58-8.63 5.05l-.005-.003zm96.23-156.4h28.598c6.448 0 6.448-10 0-10H409.73c-6.45 0-6.45 10 0 10zm-22.07-92.23l24.75-14.75c5.532-3.297.507-11.944-5.047-8.635l-24.75 14.75c-5.53 3.3-.5 11.95 5.05 8.64l-.003-.005zm-64.8-69.395l13.494-25.008c3.062-5.674-5.572-10.723-8.635-5.047l-13.494 25.008c-3.05 5.675 5.58 10.723 8.64 5.047h-.005zm-92.12-27.81V13.06c0-6.45-10-6.45-10 0v28.163c0 6.448 10 6.448 10 0zM41.225 220.66H13.13c-6.45 0-6.45 10 0 10h28.095c6.448 0 6.448-10 0-10zM63.8 312.9l-24.75 14.748c-5.533 3.297-.506 11.944 5.047 8.635l24.75-14.748c5.533-3.3.507-11.95-5.047-8.64v.005zm66.42 69.92l-15.1 24.47c-3.398 5.503 5.254 10.52 8.635 5.047l15.1-24.47c3.4-5.5-5.25-10.52-8.63-5.05l-.005.003zm90.5 26.9v28.53c0 6.448 10 6.448 10 0v-28.53c0-6.45-10-6.45-10 0zM5 225.66c.14-45.718 14.247-90.24 40.554-127.64 25.64-36.448 62.66-64.453 104.44-79.788 43.47-15.956 91.664-17.415 136.18-4.94 42.903 12.02 81.3 37.57 109.76 71.722 59.517 71.386 66.412 175.8 18.612 255.1-22.892 37.98-57.435 68.235-97.68 86.68-42.185 19.333-90.444 24.276-135.82 15.075-89.42-18.13-159.24-92.5-173.47-182.27C5.8 248.38 5.04 237 5.006 225.65c-.01-3.224-5-3.225-5 0 .138 44.757 13.36 88.625 38.255 125.84 24.13 36.074 58.83 64.64 98.667 81.756 41.473 17.82 87.878 22.388 132.15 13.973 43.055-8.183 83.07-29.607 114.44-60.08 64.967-63.1 85.268-162.15 51.6-246.02-33.26-82.85-114.74-138.66-203.74-141.13-89.62-2.5-173.83 50.68-211.1 132-13.445 29.33-20.17 61.43-20.27 93.66-.01 3.22 5 3.22 5 0L5 225.66zm221.88-12.76h-.7c-6.814 0-12.5 5.686-12.5 12.5s5.686 12.5 12.5 12.5h.7c6.814 0 12.5-5.686 12.5-12.5s-5.7-12.5-12.5-12.5z"/><path d="M228.378 217.222l-.856-159.85c-.016-3.222-5.018-3.18-5 .05l.855 159.85c.032 3.23 5.03 3.193 5-.042l-.01-.01zM60.407 106h-1.635V95.163l-3.278 1.204V94.9l4.658-1.75h.255V106zm12.788-5.458c0 1.904-.325 3.32-.976 4.245s-1.667 1.4-3.05 1.4c-1.365 0-2.376-.45-3.032-1.354s-.996-2.26-1.02-4.06v-2.17c0-1.88.325-3.278.976-4.192s1.67-1.37 3.058-1.37c1.377 0 2.4.442 3.04 1.327.65.88.984 2.238 1.002 4.078v2.1zm-1.626-2.224c0-1.377-.193-2.38-.58-3.006-.387-.633-1-.95-1.837-.95-.832 0-1.438.314-1.82.94s-.577 1.6-.6 2.892v2.602c0 1.383.2 2.405.598 3.067.404.657 1.014.985 1.828.985.803 0 1.398-.3 1.784-.932.393-.62.598-1.6.615-2.936v-2.663zM80.622 106h-1.635V95.163l-3.278 1.204V94.9l4.658-1.75h.255V106z"/></g><path d="M211.238 261.098h-4.008V268h-2.26v-17.062h5.648c1.922 0 3.4.437 4.43 1.312 1.04.875 1.558 2.148 1.558 3.82 0 1.063-.29 1.99-.867 2.778-.57.79-1.367 1.38-2.4 1.77l4.007 7.242v.14h-2.414l-3.703-6.902zm-4.008-1.84h3.458c1.117 0 2.003-.29 2.66-.867.664-.58.996-1.352.996-2.32 0-1.054-.317-1.863-.95-2.425-.625-.563-1.532-.848-2.72-.856h-3.446v6.47zm14.8 2.062V268h-2.25v-17.062h6.292c1.868 0 3.33.476 4.383 1.43 1.063.953 1.594 2.215 1.594 3.785 0 1.657-.52 2.934-1.56 3.832-1.03.89-2.51 1.336-4.44 1.336h-4.02zm0-1.84h4.042c1.204 0 2.126-.28 2.766-.843.64-.57.96-1.39.96-2.46 0-1.016-.32-1.828-.96-2.438s-1.52-.926-2.637-.95h-4.17v6.69zm15.796-8.542l5.58 13.92 5.578-13.92h2.918V268h-2.25v-6.645l.21-7.17L244.25 268h-1.723l-5.59-13.78.222 7.136V268h-2.25v-17.062h2.906z" fill="#9c9b9b"/><path d="M203.648 24.1l-5.3 11.883h-1.705l5.283-11.46H195v-1.336h8.648v.914zm10.23 11.883h-8.385v-1.17l4.43-4.922c.656-.744 1.107-1.348 1.353-1.81.252-.47.378-.952.378-1.45 0-.668-.202-1.216-.606-1.643s-.944-.642-1.618-.642c-.808 0-1.438.23-1.89.694-.446.457-.668 1.096-.668 1.916h-1.626c0-1.178.378-2.13 1.134-2.856s1.778-1.1 3.05-1.1c1.2 0 2.13.314 2.822.94.69.62 1.037 1.45 1.037 2.487 0 1.26-.803 2.76-2.408 4.5l-3.428 3.718h6.425v1.327z" fill="#000"/></g><defs><clipPath id="A"><path fill="#fff" d="M0 0h452v452H0z"/></clipPath><path id="B" d="M382.97 322.35l24.4 13.93c5.608 3.203 10.645-5.438 5.047-8.635l-24.4-13.93c-5.6-3.2-10.65 5.44-5.05 8.64l.003-.005z"/></defs></svg>
